img/usage/info.svg

<?xml version="1.0" encoding="UTF-8" standalone="no"?>
<!-- Created using Karbon, part of Calligra: http://www.calligra.org/karbon -->

<svg
   xmlns:dc="http://purl.org/dc/elements/1.1/"
   xmlns:cc="http://creativecommons.org/ns#"
   xmlns:rdf="http://www.w3.org/1999/02/22-rdf-syntax-ns#"
   xmlns:svg="http://www.w3.org/2000/svg"
   xmlns="http://www.w3.org/2000/svg"
   xmlns:xlink="http://www.w3.org/1999/xlink"
   xmlns:sodipodi="http://sodipodi.sourceforge.net/DTD/sodipodi-0.dtd"
   xmlns:inkscape="http://www.inkscape.org/namespaces/inkscape"
   width="64"
   height="64"
   id="svg3020"
   version="1.1"
   inkscape:version="0.48.4 r9939"
   sodipodi:docname="_.svg">
  <title
     id="title3557">_</title>
  <metadata
     id="metadata3037">
    <rdf:RDF>
      <cc:Work
         rdf:about="">
        <dc:format>image/svg+xml</dc:format>
        <dc:type
           rdf:resource="http://purl.org/dc/dcmitype/StillImage" />
        <cc:license
           rdf:resource="http://creativecommons.org/licenses/by-nc-sa/3.0/" />
        <dc:title>_</dc:title>
        <dc:creator>
          <cc:Agent>
            <dc:title>Christian Reiner</dc:title>
          </cc:Agent>
        </dc:creator>
        <dc:rights>
          <cc:Agent>
            <dc:title>Copyright 2012, Christian Reiner, Hamburg, Germany</dc:title>
          </cc:Agent>
        </dc:rights>
        <dc:publisher>
          <cc:Agent>
            <dc:title>Christian Reiner</dc:title>
          </cc:Agent>
        </dc:publisher>
        <dc:subject>
          <rdf:Bag>
            <rdf:li>_</rdf:li>
            <rdf:li>usage</rdf:li>
          </rdf:Bag>
        </dc:subject>
      </cc:Work>
      <cc:License
         rdf:about="http://creativecommons.org/licenses/by-nc-sa/3.0/">
        <cc:permits
           rdf:resource="http://creativecommons.org/ns#Reproduction" />
        <cc:permits
           rdf:resource="http://creativecommons.org/ns#Distribution" />
        <cc:requires
           rdf:resource="http://creativecommons.org/ns#Notice" />
        <cc:requires
           rdf:resource="http://creativecommons.org/ns#Attribution" />
        <cc:prohibits
           rdf:resource="http://creativecommons.org/ns#CommercialUse" />
        <cc:permits
           rdf:resource="http://creativecommons.org/ns#DerivativeWorks" />
        <cc:requires
           rdf:resource="http://creativecommons.org/ns#ShareAlike" />
      </cc:License>
    </rdf:RDF>
  </metadata>
  <sodipodi:namedview
     pagecolor="#ffffff"
     bordercolor="#666666"
     borderopacity="1"
     objecttolerance="10"
     gridtolerance="10"
     guidetolerance="10"
     inkscape:pageopacity="0"
     inkscape:pageshadow="2"
     inkscape:window-width="1920"
     inkscape:window-height="1114"
     id="namedview3035"
     showgrid="false"
     inkscape:zoom="7.9242462"
     inkscape:cx="-16.22726"
     inkscape:cy="30.437252"
     inkscape:window-x="-4"
     inkscape:window-y="-4"
     inkscape:window-maximized="1"
     inkscape:current-layer="svg3020" />
  <defs
     id="defs3022">
    <linearGradient
       id="gradient0"
       gradientTransform="matrix(0.935714,0,0,0.971429,-260.198,309.044)"
       gradientUnits="objectBoundingBox"
       x1="1.860629"
       y1="-2.2881174"
       x2="1.8891802"
       y2="-1.0919917"
       spreadMethod="pad">
      <stop
         stop-color="#edf4fd"
         offset="0"
         stop-opacity="0.52845044633"
         id="stop3025"
         style="stop-color:#eef4fd;stop-opacity:0.52845043;" />
      <stop
         stop-color="#175bb3"
         offset="1.00000000000"
         stop-opacity="0.00000000000"
         id="stop3027" />
    </linearGradient>
    <linearGradient
       inkscape:collect="always"
       xlink:href="#gradient0"
       id="linearGradient3787"
       gradientUnits="userSpaceOnUse"
       gradientTransform="scale(1.2307282,0.81252711)"
       spreadMethod="pad"
       x1="310.29999"
       y1="-381.5929"
       x2="315.06152"
       y2="-182.11314" />
    <radialGradient
       inkscape:collect="always"
       xlink:href="#gradient0"
       id="radialGradient6130"
       cx="31.997753"
       cy="21.222061"
       fx="31.997753"
       fy="21.222061"
       r="29.944143"
       gradientTransform="matrix(0.93444017,0,0,0.48806265,2.0977673,4.2611009)"
       gradientUnits="userSpaceOnUse" />
  </defs>
  <g
     id="text4182"
     transform="matrix(0.38466862,0,0,0.37986865,25.704051,11.607889)"
     style="fill:none" />
  <g
     id="g6132">
    <path
       style="fill:#000000"
       inkscape:connector-curvature="0"
       d="m 63.998188,32.00176 c 0,17.672471 -14.326473,31.99882 -31.999097,31.99882 C 14.326496,64.00058 -5.94477e-6,49.674231 -5.94477e-6,32.00176 -5.94477e-6,14.329318 14.326496,0.00293953 31.999091,0.00293953 c 17.672624,0 31.999097,14.32637847 31.999097,31.99882047 z"
       id="path4167" />
    <path
       style="fill:#000000"
       inkscape:connector-curvature="0"
       d="m 61.941058,32.400768 c 0,16.953474 -13.405476,30.696962 -29.94199,30.696962 -16.536487,0 -29.9419893,-13.743488 -29.9419893,-30.696962 0,-16.953447 13.4055023,-30.6969628 29.9419893,-30.6969628 16.536514,0 29.94199,13.7435158 29.94199,30.6969628 z"
       id="path4169" />
    <path
       style="fill:url(#radialGradient6130);fill-opacity:1"
       inkscape:connector-curvature="0"
       d="m 31.997694,0.0041785 c -15.452384,0 -27.980952,10.2944605 -27.980952,22.9858205 0,0.809537 0.05395,1.605267 0.1533662,2.393018 13.6507788,4.039268 34.5127478,6.982114 55.8085348,-2.285166 2.73e-4,-0.0358 0,-0.07161 0,-0.107852 0,-12.69136 -12.528648,-22.9858205 -27.980949,-22.9858205 z"
       id="path4171" />
  </g>
  <g
     id="text4182-7"
     style="fill:none"
     transform="matrix(0.33686226,0,0,0.35272615,27,12)">
    <path
       id="path4187"
       transform="scale(1.54651,0.965127)"
       d="m 19.1953,38.6016 0,55.4765 c 0,3.8438 -0.9141,6.7499 -2.7422,8.7189 -1.8281,1.969 -4.1484,2.953 -6.96092,2.953 -2.81251,0 -5.10939,-1.008 -6.89062,-3.023 C 0.86717,100.711 -9.99991e-6,97.8281 0,94.0781 l 0,-54.914 c -9.99991e-6,-3.7968 0.86717,-6.6562 2.60156,-8.5782 1.78123,-1.9218 4.07811,-2.8827 6.89062,-2.8828 2.81252,10e-5 5.13282,0.961 6.96092,2.8828 1.8281,1.922 2.7422,4.5939 2.7422,8.0157 M 9.70312,18.7734 C 7.03123,18.7735 4.73436,17.9532 2.8125,16.3125 0.93748,14.672 -9.99991e-6,12.3517 0,9.35156 -9.99991e-6,6.63291 0.96092,4.40634 2.88281,2.67187 4.85154,0.89072 7.12498,1e-4 9.70312,0 c 2.48438,1e-4 4.68748,0.79697 6.60938,2.39062 1.9218,1.59385 2.8828,3.91416 2.8828,6.96094 0,2.95324 -0.9375,5.27354 -2.8125,6.96094 -1.875,1.6407 -4.1016,2.461 -6.67968,2.4609"
       inkscape:connector-curvature="0"
       style="fill:#eeeeee" />
  </g>
</svg>

<?xml version="1.0" encoding="UTF-8" standalone="no"?>
<!-- Created using Karbon, part of Calligra: http://www.calligra.org/karbon -->

<svg
   xmlns:dc="http://purl.org/dc/elements/1.1/"
   xmlns:cc="http://creativecommons.org/ns#"
   xmlns:rdf="http://www.w3.org/1999/02/22-rdf-syntax-ns#"
   xmlns:svg="http://www.w3.org/2000/svg"
   xmlns="http://www.w3.org/2000/svg"
   xmlns:sodipodi="http://sodipodi.sourceforge.net/DTD/sodipodi-0.dtd"
   xmlns:inkscape="http://www.inkscape.org/namespaces/inkscape"
   width="133.098pt"
   height="134.778pt"
   id="svg3152"
   version="1.1"
   inkscape:version="0.48.3.1 r9886"
   sodipodi:docname="info.svg">
  <title
     id="title3545">info</title>
  <metadata
     id="metadata3170">
    <rdf:RDF>
      <cc:Work
         rdf:about="">
        <dc:format>image/svg+xml</dc:format>
        <dc:type
           rdf:resource="http://purl.org/dc/dcmitype/StillImage" />
        <cc:license
           rdf:resource="http://creativecommons.org/licenses/by-nc-sa/3.0/" />
        <dc:title>info</dc:title>
        <dc:creator>
          <cc:Agent>
            <dc:title>Christian Reiner</dc:title>
          </cc:Agent>
        </dc:creator>
        <dc:rights>
          <cc:Agent>
            <dc:title>Copyright 2012, Christian Reiner, Hamburg, Germany</dc:title>
          </cc:Agent>
        </dc:rights>
        <dc:publisher>
          <cc:Agent>
            <dc:title>Christian Reiner</dc:title>
          </cc:Agent>
        </dc:publisher>
        <dc:subject>
          <rdf:Bag>
            <rdf:li>info</rdf:li>
            <rdf:li>usage</rdf:li>
          </rdf:Bag>
        </dc:subject>
      </cc:Work>
      <cc:License
         rdf:about="http://creativecommons.org/licenses/by-nc-sa/3.0/">
        <cc:permits
           rdf:resource="http://creativecommons.org/ns#Reproduction" />
        <cc:permits
           rdf:resource="http://creativecommons.org/ns#Distribution" />
        <cc:requires
           rdf:resource="http://creativecommons.org/ns#Notice" />
        <cc:requires
           rdf:resource="http://creativecommons.org/ns#Attribution" />
        <cc:prohibits
           rdf:resource="http://creativecommons.org/ns#CommercialUse" />
        <cc:permits
           rdf:resource="http://creativecommons.org/ns#DerivativeWorks" />
        <cc:requires
           rdf:resource="http://creativecommons.org/ns#ShareAlike" />
      </cc:License>
    </rdf:RDF>
  </metadata>
  <sodipodi:namedview
     pagecolor="#ffffff"
     bordercolor="#666666"
     borderopacity="1"
     objecttolerance="10"
     gridtolerance="10"
     guidetolerance="10"
     inkscape:pageopacity="0"
     inkscape:pageshadow="2"
     inkscape:window-width="1920"
     inkscape:window-height="1114"
     id="namedview3168"
     showgrid="false"
     inkscape:zoom="1.4008221"
     inkscape:cx="-57.802385"
     inkscape:cy="84.236252"
     inkscape:window-x="-4"
     inkscape:window-y="-4"
     inkscape:window-maximized="1"
     inkscape:current-layer="svg3152" />
  <defs
     id="defs3154">
    <linearGradient
       id="gradient0"
       gradientTransform="matrix(0.935714 0 0 0.971429 -260.198 309.044)"
       gradientUnits="objectBoundingBox"
       x1="1.86062897958"
       y1="-2.28811738018"
       x2="1.88918016404"
       y2="-1.09199169808"
       spreadMethod="pad">
      <stop
         stop-color="#edf4fd"
         offset="0.00000000000"
         stop-opacity="0.52845044633"
         id="stop3157" />
      <stop
         stop-color="#175bb3"
         offset="1.00000000000"
         stop-opacity="0.00000000000"
         id="stop3159" />
    </linearGradient>
  </defs>
  <g
     id="layer1">
    <g
       id="g5381"
       transform="translate(-5.94477e-06, 2.56921e-06)"
       fill="none">
      <path
         id="path4167"
         transform="matrix(0.758527 0 0 0.768105 0 0)"
         fill="#000000"
         d="M219.336 109.668C219.336 170.236 170.236 219.336 109.668 219.336C49.1001 219.336 0 170.236 0 109.668C0 49.1001 49.1001 0 109.668 0C170.236 0 219.336 49.1001 219.336 109.668Z" />
      <path
         id="path4169"
         transform="matrix(0.709764 0 0 0.736855 5.34768 4.47751)"
         fill="#000000"
         d="M219.336 109.668C219.336 170.236 170.236 219.336 109.668 219.336C49.1001 219.336 0 170.236 0 109.668C0 49.1001 49.1001 0 109.668 0C170.236 0 219.336 49.1001 219.336 109.668Z" />
      <g
         id="text4182"
         transform="translate(66.8213, 30.5499)"
         fill="none">
        <path
           id="path4187"
           transform="matrix(1.54651 0 0 0.965127 -2.30926e-13 8.88178e-15)"
           fill="#eeeeee"
           d="M19.1953 38.6016L19.1953 94.0781C19.1953 97.9219 18.2812 100.828 16.4531 102.797C14.625 104.766 12.3047 105.75 9.49218 105.75C6.67967 105.75 4.38279 104.742 2.60156 102.727C0.86717 100.711 -9.99991e-06 97.8281 8.66294e-11 94.0781L8.66294e-11 39.1641C-9.99991e-06 35.3673 0.86717 32.5079 2.60156 30.5859C4.38279 28.6641 6.67967 27.7032 9.49218 27.7031C12.3047 27.7032 14.625 28.6641 16.4531 30.5859C18.2812 32.5079 19.1953 35.1798 19.1953 38.6016M9.70312 18.7734C7.03123 18.7735 4.73436 17.9532 2.8125 16.3125C0.93748 14.672 -9.99991e-06 12.3517 8.66294e-11 9.35156C-9.99991e-06 6.63291 0.96092 4.40634 2.88281 2.67187C4.85154 0.89072 7.12498 0.0001 9.70312 0C12.1875 0.0001 14.3906 0.79697 16.3125 2.39062C18.2343 3.98447 19.1953 6.30478 19.1953 9.35156C19.1953 12.3048 18.2578 14.6251 16.3828 16.3125C14.5078 17.9532 12.2812 18.7735 9.70312 18.7734" />
      </g>
      <path
         id="path4171"
         transform="matrix(0.758527 0 0 0.758527 5.33866 4.46647)"
         fill="url(#gradient0)"
         d="M102.625 0C45.9507 0 0 47.725 0 106.562C0 110.315 0.1979 114.004 0.5625 117.656C50.6291 136.382 127.144 150.025 205.25 107.062C205.251 106.896 205.25 106.73 205.25 106.562C205.25 47.725 159.299 0 102.625 0Z" />
    </g>
  </g>
</svg>
